X:59
T:Le canard blanc
R:Chanson
O:France
B:Le livre des Chansons (Henri Davenson) n°59
Z:<anamnese@caramail.com> -- http://anamnese.fr.st
M:3/4
L:1/8
Q:1/4=90
K:C
z G G G | G2 D2 E E |\
M:2/4
D G G G |\
M:3/4
G2 D2 E E |!
M:2/4
D D G B |d d B G | A4 | D2 E E | D2 D D/ D/ |!
M:3/4
D c B A A G |\
M:2/4
D2 E E | D2 D D/ D/ | D c B A | G4 ||
W:Derrière chez nous y a-t-un étang, (2x)
W:Trois beaux canards y vont nageant
W:Moi je ferai faire un petit moulin sur la rivière
W:et puis encore un petit bateau pour passer l'eau.
W:
W: /.../

